public/svg/streaming/netflix.svg

<?xml version="1.0" encoding="UTF-8" standalone="no"?>
<svg width="26px" height="50px" viewBox="0 0 26 50" version="1.1" xmlns="http://www.w3.org/2000/svg" xmlns:xlink="http://www.w3.org/1999/xlink">
    <defs></defs>
    <g stroke="none" stroke-width="1" fill="none" fill-rule="evenodd">
        <g fill="#E21221">
            <path d="M0.0567010309,0.257731959 C2.51804124,0.25257732 4.98195876,0.262886598 7.44587629,0.25257732 C10.3041237,8.0128866 13.0670103,15.8092784 15.9020619,23.5773196 C16.4252577,25.0180412 16.9046392,26.4742268 17.492268,27.8891753 C17.5695876,18.6804124 17.5025773,9.46907216 17.5257732,0.257731959 L25.2886598,0.257731959 L25.2886598,46.6185567 C22.4768041,46.9896907 19.6520619,47.2448454 16.8324742,47.5747423 C15.628866,44.1237113 14.435567,40.6726804 13.2190722,37.2268041 C11.4226804,32.0824742 9.66237113,26.9252577 7.81701031,21.7989691 C7.94587629,30.7525773 7.83247423,39.7113402 7.87371134,48.6701031 C5.27061856,49.0592784 2.64690722,49.306701 0.0592783505,49.7886598 C0.0515463918,33.2783505 0.0592783505,16.7680412 0.0567010309,0.257731959 L0.0567010309,0.257731959 Z" id="Shape"></path>
        </g>
    </g>
</svg>

<svg width="26" height="50" viewBox="0 0 26 50" xmlns="http://www.w3.org/2000/svg"><path d="M.057.258c2.46-.005 4.925.005 7.39-.005 2.857 7.76 5.62 15.556 8.455 23.324.523 1.44 1.003 2.897 1.59 4.312.078-9.21.01-18.42.034-27.632h7.763v46.36c-2.813.372-5.638.627-8.458.957-1.203-3.45-2.396-6.902-3.613-10.348C11.422 32.082 9.66 26.925 7.816 21.8c.13 8.953.015 17.91.057 26.87-2.603.39-5.227.637-7.815 1.12C.05 33.277.06 16.767.056.257z" fill="#E21221" fill-rule="evenodd"/></svg>
